X:1
T:Breve Jesus Voltará
T:Breve Jesus Voltará
T:Jesus Is Coming Again
T:Música: George E. Lee (século 19)
T:Letra: Jessie E. Strout (século 19)
T:134
C:Música: George E. Lee (século 19)
Z:Letra: Jessie E. Strout (século 19)
%%score ( 1 2 ) ( 3 4 ) 5
L:1/8
M:4/4
K:C
V:1 treble nm="Violino 1" snm="Vln."
V:2 treble 
V:3 treble nm="Violino 2" snm="Vln. 2"
V:4 treble 
V:5 bass nm="Violoncelo" snm="Vc."
V:1
 c2 c>c c c2 c | d2 d>d d4 | c2 c>c e2 dc | d6 z2 | c2 c>c c c2 c | d2 e>e f4 | A2 f>d c2 B>B | %7
 c6 z2 |"^Refrão" e2 e>e e4 | f2 f>f d4 | e2 f>d c2 B>B | c6 z2 |] %12
V:2
 x8 | x8 | x8 | x8 | x8 | x8 | A2 x6 | x8 | x8 | x8 | x8 | x8 |] %12
V:3
 G2 G>G G G2 G | B2 B>B B4 | G2 G>G G2 G^F | G6 z2 | G2 G>G G G2 G | B2 _B>B A4 | A2 A>A G2 F>F | %7
 E6 z2 | G2 G>G G4 | A2 A>A B4 | G2 A>A G2 F>F | E6 z2 |] %12
V:4
 x8 | x8 | x8 | x8 | x8 | x8 | A2 x6 | x8 | x8 | x8 | x8 | x8 |] %12
V:5
 C,2 C,>C, C, C,2 C, | G,,2 G,,>G,, G,,4 | C,2 C,>C, C,2 B,,A,, | G,,6 z2 | C,2 C,>C, C, C,2 C, | %5
 G,,2 C,>C, F,,4 | F,,2 F,,>F,, G,,2 G,,>G,, | C,,6 z2 | C,2 C,>C, C,4 | F,,2 F,,>F,, G,,4 | %10
 C,2 F,,>F,, G,,2 G,,>G,, | C,,6 z2 |] %12

